X:152
T: Der Meierin Sohn
N: Q1083B
O: Suedosteuropa, Rumaenien, Siebenbuergen
N: Melodievergleich zu Q0083, anderes Lied.
R: Abschieds - Lied
M: 3/4
L: 1/8
K: F
C2 | F4F2 | F2E2F2 | G2A2G2 | F2F2
G2 | A2G2A2 | B2A2GF | A2A2G2 | F2F2

